samcoupe/_inc/system.svg

<svg xmlns="http://www.w3.org/2000/svg"><g fill="#fff"><path d="m52.421 45.348c0-8.386-4.192-13.629-11.532-13.629-7.339 0-9.436 5.243-9.436 11.532 0 6.291 5.242 11.534 25.162 20.97s24.115 22.018 24.115 37.744-12.581 40.887-40.889 40.887-39.841-17.823-39.841-44.035h25.162c0 10.485 5.243 15.727 13.63 15.727s11.534-6.289 11.534-11.532c0-5.241.841-7.966-29.356-23.066-18.873-9.435-19.922-30.405-19.922-36.696 0-6.289 3.146-26.209 19.922-35.646 16.773-9.436 40.888-3.145 50.323 9.437 9.437 12.58 6.291 28.306 6.291 28.306-10.485.001-25.163.001-25.163.001z"/><path d="m278.884 4.459h-30.405v75.487l-49.276-76.535h-30.404v79.681l-51.374-78.633h-31.454l1.05 138.393h34.598v-20.967h30.404l12.581 19.92h38.792s0-58.714 0-67.102l44.035 68.149h34.597v-68.149l44.035 67.102h40.889zm-157.265 90.165v-19.921l13.628 19.92h-13.628z"/><path d="m373.243 140.755-87.02-136.296h175.089l-40.89 65.003s-10.484-6.289-24.115 14.679c-13.629 20.969-7.338 29.356-6.29 32.501-4.192 7.339-16.774 24.113-16.774 24.113z"/><path d="m583.229 66.078c-4.367 2.272-10.834.874-12.056-6.29 15.2-10.135 19.22-15.901 20.619-23.939 1.397-8.037-5.768-8.387-13.106-3.844s-17.298 16.25-17.648 31.102c-4.717 6.816-9.61 14.679-17.298 14.33 8.735-16.252 10.484-24.113 9.26-29.88-1.221-5.766-7.512-5.766-21.84 15.726 1.396-12.93 6.812-24.462 7.862-27.607 1.047-3.146 1.222-5.767-2.099-4.893-3.317.874-7.687 8.736-13.452 23.064-5.767 14.328-15.028 27.082-17.822 30.404-2.796 3.32-7.515 4.716-7.166-4.021.351-8.736 5.942-15.725 7.166-19.568 1.223-3.844-.875-10.31-3.321-8.737-2.447 1.573-10.31 16.6-14.154 23.239-3.843 6.64-8.561 12.755-10.308 14.502s-5.244 1.224-3.845-4.192c1.398-5.417 5.067-11.008 6.815-13.804s5.417-8.561 1.573-10.134-13.106 3.32-16.249 24.637c-2.621 5.416-5.942 8.912-9.96 10.309 1.572-7.689 3.493-26.558-4.018-22.89 1.223-4.193-.877-6.115-4.894-5.416-4.02.699-20.618 10.136-21.668 31.276-3.669 6.466-12.93 14.679-17.823 14.679-4.891 0-7.687-4.37-7.338-9.086.35-4.718 6.465-11.183 9.435-12.58 1.05 2.621 2.795 2.446 3.845 2.446 1.048 0 4.367-3.844 5.59-9.786 1.224-5.941.526-8.91-2.445-9.96-2.969-1.047-11.182 4.193-16.075 11.184-4.893 6.988-13.281 20.616-2.622 32.672 10.66 12.058 21.317-1.047 29.006-15.375 2.096 7.861 8.037 11.181 12.404 11.181 4.369 0 11.359-5.417 14.154-11.705 4.194.173 10.134-5.244 12.755-10.31-.175 5.591 6.815 10.833 11.01 9.96 4.193-.876 9.61-11.359 12.93-18.521 0 9.261-.525 16.25 6.116 16.075 6.639-.176 16.948-19.046 28.306-39.84-5.243 25.336-9.086 34.248-9.961 41.586-.874 7.338.699 18.173 3.842 18.173 3.147 0 5.944-15.552 6.816-29.355 6.639-1.923 8.039-2.446 9.261-2.446 1.225 0 5.766 1.924 12.579-2.97 6.816-4.893 10.833-11.183 15.727-17.648 3.67 8.912 9.959 12.056 20.268 6.29s15.726-21.842 16.6-25.86c-5.935 9.436-12.403 15.55-16.771 17.822zm-135.939 31.976c-.348 6.814-5.068 8.736-7.163 8.736-2.096 0-5.941-.348-5.941-6.989 0-6.638 5.941-14.502 12.23-20.618 2.447-2.271-.176 3.67-.874 10.309-.7 6.641.349 9.436 1.748 8.562zm82.648-19.394c1.922-10.134 9.434-21.317 13.104-21.317 3.668 0-1.049 11.532-3.145 15.726-2.097 4.193-5.592 4.544-9.959 5.591zm51.894-42.11c3.319-2.796 4.717 1.223 1.397 5.941-3.318 4.717-10.659 11.532-12.58 12.231.875-9.26 7.862-15.376 11.183-18.172z"/><path d="m570.474 27.464c.175-4.369 2.445-10.309 6.466-15.026 4.019-4.719 11.006-12.057 13.627-12.407 2.623-.349 3.846 2.272 3.846 6.466 0 4.193 0 5.591-2.972 7.862-2.971 2.272-12.755 9.261-14.327 10.833-1.574 1.573-6.815 6.989-6.64 2.272z"/></g></svg>

<?xml version="1.0" encoding="utf-8"?>
<svg version="1.1" xmlns="http://www.w3.org/2000/svg">
  <path d="M 52.421 45.348 C 52.421 36.962 48.229 31.719 40.889 31.719 C 33.55 31.719 31.453 36.962 31.453 43.251 C 31.453 49.542 36.695 54.785 56.615 64.221 C 76.535 73.657 80.73 86.239 80.73 101.965 C 80.73 117.691 68.149 142.852 39.841 142.852 C 11.533 142.852 0 125.029 0 98.817 C 18.873 98.817 25.162 98.817 25.162 98.817 C 25.162 109.302 30.405 114.544 38.792 114.544 C 47.179 114.544 50.326 108.255 50.326 103.012 C 50.326 97.771 51.167 95.046 20.97 79.946 C 2.097 70.511 1.048 49.541 1.048 43.25 C 1.048 36.961 4.194 17.041 20.97 7.604 C 37.743 -1.832 61.858 4.459 71.293 17.041 C 80.73 29.621 77.584 45.347 77.584 45.347 C 67.099 45.348 52.421 45.348 52.421 45.348 Z" style="fill: rgb(255, 255, 255);"/>
  <path d="M 278.884 4.459 L 248.479 4.459 L 248.479 79.946 L 199.203 3.411 L 168.799 3.411 L 168.799 83.092 L 117.425 4.459 L 85.971 4.459 L 87.021 142.852 L 121.619 142.852 L 121.619 121.885 L 152.023 121.885 L 164.604 141.805 L 203.396 141.805 C 203.396 141.805 203.396 83.091 203.396 74.703 L 247.431 142.852 L 282.028 142.852 L 282.028 74.703 L 326.063 141.805 L 366.952 141.805 L 278.884 4.459 Z M 121.619 94.624 L 121.619 74.703 L 135.247 94.623 L 121.619 94.623 Z" style="fill: rgb(255, 255, 255);"/>
  <path d="M 373.243 140.755 L 286.223 4.459 L 461.312 4.459 L 420.422 69.462 C 420.422 69.462 409.938 63.173 396.307 84.141 C 382.678 105.11 388.969 113.497 390.017 116.642 C 385.825 123.981 373.243 140.755 373.243 140.755 Z" style="fill: rgb(255, 255, 255);"/>
  <path d="M 583.229 66.078 C 578.862 68.35 572.395 66.952 571.173 59.788 C 586.373 49.653 590.393 43.887 591.792 35.849 C 593.189 27.812 586.024 27.462 578.686 32.005 C 571.348 36.548 561.388 48.255 561.038 63.107 C 556.321 69.923 551.428 77.786 543.74 77.437 C 552.475 61.185 554.224 53.324 553 47.557 C 551.779 41.791 545.488 41.791 531.16 63.283 C 532.556 50.353 537.972 38.821 539.022 35.676 C 540.069 32.53 540.244 29.909 536.923 30.783 C 533.606 31.657 529.236 39.519 523.471 53.847 C 517.704 68.175 508.443 80.929 505.649 84.251 C 502.853 87.571 498.134 88.967 498.483 80.23 C 498.834 71.494 504.425 64.505 505.649 60.662 C 506.872 56.818 504.774 50.352 502.328 51.925 C 499.881 53.498 492.018 68.525 488.174 75.164 C 484.331 81.804 479.613 87.919 477.866 89.666 C 476.119 91.413 472.622 90.89 474.021 85.474 C 475.419 80.057 479.088 74.466 480.836 71.67 C 482.584 68.874 486.253 63.109 482.409 61.536 C 478.565 59.963 469.303 64.856 466.16 86.173 C 463.539 91.589 460.218 95.085 456.2 96.482 C 457.772 88.793 459.693 69.924 452.182 73.592 C 453.405 69.399 451.305 67.477 447.288 68.176 C 443.268 68.875 426.67 78.312 425.62 99.452 C 421.951 105.918 412.69 114.131 407.797 114.131 C 402.906 114.131 400.11 109.761 400.459 105.045 C 400.809 100.327 406.924 93.862 409.894 92.465 C 410.944 95.086 412.689 94.911 413.739 94.911 C 414.787 94.911 418.106 91.067 419.329 85.125 C 420.553 79.184 419.855 76.215 416.884 75.165 C 413.915 74.118 405.702 79.358 400.809 86.349 C 395.916 93.337 387.528 106.965 398.187 119.021 C 408.847 131.079 419.504 117.974 427.193 103.646 C 429.289 111.507 435.23 114.827 439.597 114.827 C 443.966 114.827 450.956 109.41 453.751 103.122 C 457.945 103.295 463.885 97.878 466.506 92.812 C 466.331 98.403 473.321 103.645 477.516 102.772 C 481.709 101.896 487.126 91.413 490.446 84.251 C 490.446 93.512 489.921 100.501 496.562 100.326 C 503.201 100.15 513.51 81.28 524.868 60.486 C 519.625 85.822 515.782 94.734 514.907 102.072 C 514.033 109.41 515.606 120.245 518.749 120.245 C 521.896 120.245 524.693 104.693 525.565 90.89 C 532.204 88.967 533.604 88.444 534.826 88.444 C 536.051 88.444 540.592 90.368 547.405 85.474 C 554.221 80.581 558.238 74.291 563.132 67.826 C 566.802 76.738 573.091 79.882 583.4 74.116 C 593.709 68.35 599.126 52.274 600 48.256 C 594.065 57.692 587.597 63.806 583.229 66.078 Z M 447.29 98.054 C 446.942 104.868 442.222 106.79 440.127 106.79 C 438.031 106.79 434.186 106.442 434.186 99.801 C 434.186 93.163 440.127 85.299 446.416 79.183 C 448.863 76.912 446.24 82.853 445.542 89.492 C 444.842 96.133 445.891 98.928 447.29 98.054 Z M 529.938 78.66 C 531.86 68.526 539.372 57.343 543.042 57.343 C 546.71 57.343 541.993 68.875 539.897 73.069 C 537.8 77.262 534.305 77.613 529.938 78.66 Z M 581.832 36.55 C 585.151 33.754 586.549 37.773 583.229 42.491 C 579.911 47.208 572.57 54.023 570.649 54.722 C 571.524 45.462 578.511 39.346 581.832 36.55 Z" style="fill: rgb(255, 255, 255);"/>
  <path d="M 570.474 27.464 C 570.649 23.095 572.919 17.155 576.94 12.438 C 580.959 7.719 587.946 0.381 590.567 0.031 C 593.19 -0.318 594.413 2.303 594.413 6.497 C 594.413 10.69 594.413 12.088 591.441 14.359 C 588.47 16.631 578.686 23.62 577.114 25.192 C 575.54 26.765 570.299 32.181 570.474 27.464 Z" style="fill: rgb(255, 255, 255);"/>
</svg>
